X: 1
T: Harvest Home
R: hornpipe, reel
B: BSFC Session Tune Book 2016 p.47
S: BSFC Tune Book X-10
Z: 2019 John Chambers <jc:trillian.mit.edu>
M: 4/4
L: 1/8
K: D
AF |\
"D"DAFA DAFA |  "D"defe dcBA | "A7"eAfA gAfA | edcB AGFE |
"D"DAFA DAFA | "Bm"defe dcBA | "A7"eAfA gece | "D"d2f2 d2 :| 
|: cd |\
"A7"eA~A2 "D"fA~A2 | "A7"gAfA "D"eA~A2 | "A7"eAfA gAfA | "Em"edcB "A7"AGFE |
"D"DAFA DAFA | "D"defe dcBA | "A7"eAfA gece | "D"d2f2 d2 :| 
